X:17740
T:Trim the Velvet
S:unknown, photocopy. No. 16 on p.10
M:C
I:speed 300
K:G
G3B AGFD | G2 Bd cAFA | G3B AGFA | defd cAFA |
~G3B ~A3 c | BcdB cAFA | DG ~G2 AGFA | defd cAFA ||
dgfg dg ~g2 | dedB cAFA | dgfg dg ~g2 | defd cAFA |
d3e dBGB | dGBG cAFA | dgfg dg ~g2 | defd cAFA ||
g2 ga (3bag (3agf | g2 ab c'afa | g2 (3bag agbg | defd cAFA |
g2 ga (3bag (3agf | g2 ab c'afa | bg ~g2 bg (3agf | defd cAFA ||
BGdG BG ~G2 | (3BAG dG cAFA | (3BAG dG BG ~G2 | defd cAFA |
BGdG BG ~G2 | DG ~G2 cAFA | B2 BG A2 (3ABc | d2 (3fed cAFA||
